X:1
T:Young Alan (4)
M:6/8
L:1/8
K:C
 D| DDD DEG| A2 A D2 D/2E/2| GGG E2 D| C3- C2 C/2C/2| D2 D DEF| A2 A GAc|\
 A2 c EDC| D3- D2||
